X:135
T: Walsh's
S: "Ceol Rince na hEireann" 1/70
Z: B.Black
L: 1/8
M: 4/4
R: reel
K: G
G2 BG DGBG|DGBG dGBG|ABAG ABcd|(3efg fa gedB|
G2 BG DGBe|dBGB d2 ef|(3gfe fd ecAG|(3FED EF G2||
ef|g2 bg dgbg|f2 af dfaf|g2 bg dgbg|fdef gdBd|
g2 bg dgbg|(3fef af dfaf|bgaf gfed|egfa g2 z2 ||
